symbols/default/02n.svg

<svg width="100" height="100" viewBox="0 0 100 100" fill="none" xmlns="http://www.w3.org/2000/svg">
<g clip-path="url(#clip0_149_1384)">
<path fill-rule="evenodd" clip-rule="evenodd" d="M48.3 32.3C48.3 27.1 46.8 22.2 44.4 18C55.8767 19.4651 65.1671 27.6878 68.2268 38.5699C65.2605 39.8984 62.6642 42.0116 60.7659 44.6833H60.0843C57.0482 44.6833 54.2599 46.1084 52.5869 48.525C49.4888 48.7108 46.6386 50.012 44.4699 52.2427C42.2392 54.4733 41 57.4475 41 60.6076V60.7315C41.062 64.0775 42.3632 67.1756 44.7797 69.4682C46.6971 71.3337 49.1345 72.4625 51.7658 72.782C48.3623 74.2106 44.6236 75 40.7 75C30.2 75 21 69.2 16 60.6C17.2 60.8 18.4 60.9 19.7 60.9C35.5 60.9 48.3 48.1 48.3 32.3Z" fill="url(#paint0_linear_149_1384)"/>
<path fill-rule="evenodd" clip-rule="evenodd" d="M90.272 52.4285C89.0947 45.4268 82.8985 40.0981 75.6489 40.0981C70.0103 40.0981 64.9295 43.2582 62.451 48.2151C61.7074 47.9053 60.9639 47.7814 60.2203 47.7814C57.6179 47.7814 55.3873 49.3304 54.5198 51.623C54.148 51.5611 53.8382 51.5611 53.4665 51.5611C50.926 51.5611 48.5714 52.5525 46.8365 54.3494C45.1635 56.0843 44.2341 58.315 44.2341 60.6695V60.7934C44.2961 63.3339 45.2875 65.6265 47.0844 67.2995C48.7573 68.9724 51.0499 69.9019 53.4665 69.9019H87.9794C92.8744 69.9019 96.9019 65.9363 96.9019 61.0413C96.9019 56.9518 94.1136 53.4199 90.272 52.4285Z" fill="#DDDDDD"/>
<g opacity="0.6">
<path fill-rule="evenodd" clip-rule="evenodd" d="M90.272 52.4285C89.0947 45.4268 82.8985 40.0981 75.6489 40.0981C70.0103 40.0981 64.9295 43.2582 62.451 48.2151C61.7074 47.9053 60.9639 47.7814 60.2203 47.7814C57.6179 47.7814 55.3873 49.3304 54.5198 51.623C54.148 51.5611 53.8382 51.5611 53.4665 51.5611C50.926 51.5611 48.5714 52.5525 46.8365 54.3494C45.1635 56.0843 44.2341 58.315 44.2341 60.6695V60.7934C44.2961 63.3339 45.2875 65.6265 47.0844 67.2995C48.7573 68.9724 51.0499 69.9019 53.4665 69.9019H87.9794C92.8744 69.9019 96.9019 65.9363 96.9019 61.0413C96.9019 56.9518 94.1136 53.4199 90.272 52.4285Z" fill="url(#paint1_linear_149_1384)" style="mix-blend-mode:multiply"/>
</g>
</g>
<defs>
<linearGradient id="paint0_linear_149_1384" x1="27.4251" y1="72.4921" x2="64.1806" y2="28.6887" gradientUnits="userSpaceOnUse">
<stop stop-color="#686E73"/>
<stop offset="0.9891" stop-color="#6A7075"/>
</linearGradient>
<linearGradient id="paint1_linear_149_1384" x1="69.3288" y1="49.7022" x2="70.568" y2="69.9019" gradientUnits="userSpaceOnUse">
<stop offset="0.484375" stop-color="white" stop-opacity="0"/>
<stop offset="1" stop-color="#B3B2B2"/>
</linearGradient>
<clipPath id="clip0_149_1384">
<rect width="100" height="100" fill="white"/>
</clipPath>
</defs>
</svg>

<svg xmlns="http://www.w3.org/2000/svg" width="100" height="100" fill="none" viewBox="0 0 100 100">
  <g clip-path="url(#a)">
    <path fill="url(#b)" fill-rule="evenodd" d="M48.3 32.3c0-5.2-1.5-10.1-3.9-14.3 11.477 1.465 20.767 9.688 23.827 20.57a18.396 18.396 0 0 0-7.461 6.113h-.682c-3.036 0-5.824 1.425-7.497 3.842a12.25 12.25 0 0 0-8.117 3.718A11.765 11.765 0 0 0 41 60.608v.123c.062 3.346 1.363 6.445 3.78 8.737 1.917 1.866 4.355 2.995 6.986 3.314A28.525 28.525 0 0 1 40.7 75C30.2 75 21 69.2 16 60.6c1.2.2 2.4.3 3.7.3 15.8 0 28.6-12.8 28.6-28.6Z" clip-rule="evenodd"/>
    <path fill="#DDD" fill-rule="evenodd" d="M90.272 52.428c-1.177-7.001-7.374-12.33-14.623-12.33-5.639 0-10.72 3.16-13.198 8.117a5.715 5.715 0 0 0-2.23-.434c-2.603 0-4.834 1.55-5.701 3.842-.372-.062-.682-.062-1.053-.062-2.541 0-4.896.992-6.63 2.788-1.674 1.735-2.603 3.966-2.603 6.32v.124c.062 2.54 1.053 4.833 2.85 6.506 1.673 1.673 3.966 2.603 6.383 2.603h34.512c4.895 0 8.923-3.966 8.923-8.86 0-4.09-2.788-7.622-6.63-8.614Z" clip-rule="evenodd"/>
    <path fill="url(#c)" fill-rule="evenodd" d="M90.272 52.428c-1.177-7.001-7.374-12.33-14.623-12.33-5.639 0-10.72 3.16-13.198 8.117a5.715 5.715 0 0 0-2.23-.434c-2.603 0-4.834 1.55-5.701 3.842-.372-.062-.682-.062-1.053-.062-2.541 0-4.896.992-6.63 2.788-1.674 1.735-2.603 3.966-2.603 6.32v.124c.062 2.54 1.053 4.833 2.85 6.506 1.673 1.673 3.966 2.603 6.383 2.603h34.512c4.895 0 8.923-3.966 8.923-8.86 0-4.09-2.788-7.622-6.63-8.614Z" clip-rule="evenodd" opacity=".6" style="mix-blend-mode:multiply"/>
    <g filter="url(#d)" opacity=".3" style="mix-blend-mode:multiply">
      <path fill="#B6B6B6" d="M58.176 65.503c1.107 0 15.396-.789 16.407-1.24 1.382-.616-1.481-4.32 0-4.628.669-.139 1.652-.575 1.652-.575s2.698-.992 3.163-.992c.465 0 .232-1.837.086-2.98l-.086-.819c0-.539-1.606-1.657-1.86-3.017-.175-.947.263-2.221.172-2.459 0 0-.032-.017-.022-.02.008-.002.016.005.022.02.07.033.571.203.571.203 1.207.409 3.116 1.078 4.834 2.256 1.028.704 2.442 2.053 2.442 2.053s1.02.788 1.276 1.045c.62.62 2.478 2.478 3.718 2.478h3.098l1.394.985.31 1.99c0 4.895-4.028 8.86-8.923 8.86H51.36s2.788-3.16 6.816-3.16Z"/>
    </g>
  </g>
  <defs>
    <linearGradient id="b" x1="27.425" x2="64.181" y1="72.492" y2="28.689" gradientUnits="userSpaceOnUse">
      <stop stop-color="#686E73"/>
      <stop offset=".989" stop-color="#6A7075"/>
    </linearGradient>
    <linearGradient id="c" x1="69.329" x2="70.568" y1="49.702" y2="69.902" gradientUnits="userSpaceOnUse">
      <stop offset=".484" stop-color="#fff" stop-opacity="0"/>
      <stop offset="1" stop-color="#B3B2B2"/>
    </linearGradient>
    <clipPath id="a">
      <path fill="#fff" d="M0 0h100v100H0z"/>
    </clipPath>
    <filter id="d" width="52.668" height="28.565" x="47.022" y="44.435" color-interpolation-filters="sRGB" filterUnits="userSpaceOnUse">
      <feFlood flood-opacity="0" result="BackgroundImageFix"/>
      <feBlend in="SourceGraphic" in2="BackgroundImageFix" result="shape"/>
      <feGaussianBlur result="effect1_foregroundBlur_149_1384" stdDeviation="2.169"/>
    </filter>
  </defs>
</svg>
